X:124
T:Nature Boy
C:Eden Ahbez -1948
N:TablEdited by Kim Davis and Mike Stangeland
L:1/8
Q:1/4=80
M:3/4
K:G
z4 zB, |: "Em"B3/2G/ E4 | zB, "Am6"FG Ac | "Em"B3/2G/ E4 | zB, "Am6"FG Ac | "Em"Be ^d4 | 
Bd ^c4 | "Am6"Ac "Em"B3E | "Am6"F4 zB, | BA F4 | z4 zB, | "Em"AG E4 | z4 z^A, | 
"F#7b9"GF ^C4 | z4 D2 | "B7b9"^D6 | z4 zB, | "Em"B3/2G/ E4 | zB, "Am6"FG Ac | 
"Em"B3/2G/ E4 | zB, "Am6"FG Ac | "Em"Be ^d4 | Bd ^c4 | "Am6"Ac "Em"B3E | "Am6"F4 zB, | 
BA F4 | z4 zB, | "Em"AG E4 | z4 z^A, |1 "F#7b9"GF ^C3=C | "B7b9"E^D z2 C3/2B,/ | 
"Em"E6 | "F#m7b5"z4 zB, :|2 "F#7b9"GF ^C2 z2 | "B7b9"CA G3^D/F/ | "Em"E6 | z6 | 


